X:18
T:THE IRISH ROVER/WEARING OF THE GREEN #4
M:4/4
S:NOV. 2002 - PDF FILE - R.S.
R:REEL
K:D
D/>E/|\
"D" FFFF |     FAAF  | "A7" FEEF   |     E3  A   |!
"G" BGdc | "D" BAF>D | "A7" EDD>E  | "D" D3     :|!
d/>c/|\
"D" BAAF |     AADE   |      F>EF>G  |     F2dc    |!
"G" BBAB | "D" AADF   | "E7" EDCB,   | "A" A,2 D>E |!
"D" FFFF |     FA2 F  | "A7" FEEF    |     E3  A   |!
"G" BGdc | "D" BAF>D  | "A7" EDD>E   | "D" D3      |]
% Written by ABC2Win  2.2.124 BETA on 9/10/2010
